Papirus/64x64/apps/cinema4d.svg

<svg xmlns="http://www.w3.org/2000/svg" height="64" width="64" version="1.1">
 <path style="fill:#63637c" d="m17 18 32 27-10 10-15 1-11-7-6-13 5-12z"/>
 <circle r="20.5" style="opacity:.2" cx="36.5" cy="28.5"/>
 <circle r="20.5" style="fill:#345ed2" cx="36.5" cy="27.5"/>
 <path style="opacity:.2;fill:#ffffff" d="m36.5 7a20.5 20.5 0 0 0 -20.5 20.5 20.5 20.5 0 0 0 0.021484 0.585938 20.5 20.5 0 0 1 20.478516 -20.085938 20.5 20.5 0 0 1 20.478516 19.914062 20.5 20.5 0 0 0 0.021484 -0.414062 20.5 20.5 0 0 0 -20.5 -20.5z"/>
 <path style="opacity:.2" d="m32 5c-15.463973 0-28 12.536027-28 28s12.536027 28 28 28 28-12.536027 28-28c-0.0119-3.951155-0.859913-7.855053-2.488281-11.455078-0.428468-0.333158-0.922388-0.544922-1.511719-0.544922-6 0-5.228288 18.842433-10 26-6 9-19.364728 11.4941-29 4-9.0000001-7-8-20-2-28 6.841053-9.121403 28-7 28-14 0-1.0290043-0.667316-1.7897449-1.650391-2.3574219-3.00033-1.0756833-6.162299-1.631191-9.349609-1.6425781z"/>
 <path style="fill:#e4e4e4" d="m32 4c-15.463973 0-28 12.536027-28 28s12.536027 28 28 28 28-12.536027 28-28c-0.011905-3.951155-0.859913-7.855053-2.488281-11.455078-0.428468-0.333158-0.922388-0.544922-1.511719-0.544922-6 0-5.228288 18.842433-10 26-6 9-19.364728 11.4941-29 4-9.0000001-7-8-20-2-28 6.841053-9.121403 28-7 28-14 0-1.0290043-0.667316-1.7897449-1.650391-2.3574219-3.00033-1.0756833-6.162299-1.631191-9.349609-1.6425781z"/>
 <path style="opacity:.2;fill:#ffffff" d="m32 4c-15.463973 0-28 12.536027-28 28 0 0.167638 0.0107377 0.333062 0.0136719 0.5 0.2677316-15.232425 12.689993-27.5 27.986328-27.5 3.18731 0.0113871 6.349279 0.5668948 9.349609 1.6425781 0.83064 0.4796534 1.429941 1.099709 1.597657 1.9003907 0.029929-0.175491 0.052734-0.3546743 0.052734-0.5429688 0-1.0290043-0.667316-1.7897449-1.650391-2.3574219-3.00033-1.0756833-6.162299-1.631191-9.349609-1.6425781zm24 16c-6 0-5.228288 18.842433-10 26-6 9-19.364728 11.4941-29 4-4.435143-3.449556-6.43278-8.356994-6.609375-13.404297-0.066278 5.393827 1.881752 10.727257 6.609375 14.404297 9.635272 7.4941 23 5 29-4 4.771712-7.157567 4-26 10-26 0.589331 0 1.083251 0.211764 1.511719 0.544922 1.563566 3.456761 2.399365 7.194459 2.474609 10.984375 0.003287-0.176668 0.013672-0.351843 0.013672-0.529297-0.011905-3.951155-0.859913-7.855053-2.488281-11.455078-0.428468-0.333158-0.922388-0.544922-1.511719-0.544922z"/>
</svg>

<?xml version="1.0" encoding="UTF-8" standalone="no"?>
<svg
   id="_图层_1"
   version="1.1"
   viewBox="0 0 64 64" width="64" height="64"
   sodipodi:docname="cinema4d.svg"
   xml:space="preserve"
   inkscape:version="1.4 (e7c3feb100, 2024-10-09)"
   xmlns:inkscape="http://www.inkscape.org/namespaces/inkscape"
   xmlns:sodipodi="http://sodipodi.sourceforge.net/DTD/sodipodi-0.dtd"
   xmlns="http://www.w3.org/2000/svg"
   xmlns:svg="http://www.w3.org/2000/svg"><sodipodi:namedview
     id="namedview26"
     pagecolor="#505050"
     bordercolor="#eeeeee"
     borderopacity="1"
     inkscape:showpageshadow="0"
     inkscape:pageopacity="0"
     inkscape:pagecheckerboard="0"
     inkscape:deskcolor="#505050"
     inkscape:zoom="10.6875"
     inkscape:cx="32"
     inkscape:cy="32"
     inkscape:window-width="1920"
     inkscape:window-height="939"
     inkscape:window-x="0"
     inkscape:window-y="34"
     inkscape:window-maximized="1"
     inkscape:current-layer="g26" /><!-- Generator: Adobe Illustrator 29.0.1, SVG Export Plug-In . SVG Version: 2.1.0 Build 192)  --><defs
     id="defs6"><style
       id="style1">
      .st0 {
        fill-opacity: .5;
      }

      .st0, .st1, .st2, .st3, .st4, .st5, .st6, .st7 {
        fill: #fff;
      }

      .st8 {
        fill: #133c9a;
      }

      .st2, .st9 {
        display: none;
      }

      .st3 {
        fill-opacity: .2;
      }

      .st4 {
        fill-opacity: .9;
      }

      .st10 {
        fill: #3370ff;
      }

      .st11 {
        fill: url(#_未命名的渐变_3);
      }

      .st12 {
        fill: url(#_未命名的渐变);
      }

      .st5 {
        fill-opacity: .3;
      }

      .st6 {
        fill-opacity: 0;
      }

      .st7 {
        fill-opacity: .7;
      }

      .st13 {
        fill: #00d6b9;
      }

      .st14 {
        fill: url(#_未命名的渐变_2);
      }
    </style><radialGradient
       id="_未命名的渐变"
       data-name="未命名的渐变"
       cx="123.9"
       cy="-40.2"
       fx="123.9"
       fy="-40.2"
       r="59.4"
       gradientTransform="translate(-26.8 25.5) scale(.6 -.7)"
       gradientUnits="userSpaceOnUse"><stop
         offset="0"
         stop-color="#db202e"
         id="stop1" /><stop
         offset="1"
         stop-color="#e01b24"
         id="stop2" /></radialGradient><radialGradient
       id="_未命名的渐变_2"
       data-name="未命名的渐变 2"
       cx="67.6"
       cy="26.8"
       fx="67.6"
       fy="26.8"
       r="105.2"
       gradientTransform="translate(-26.6 25.3) scale(.6 -.7)"
       gradientUnits="userSpaceOnUse"><stop
         offset="0"
         stop-color="#ffb648"
         id="stop3" /><stop
         offset="1"
         stop-color="#ff7800"
         stop-opacity="0"
         id="stop4" /></radialGradient><radialGradient
       id="_未命名的渐变_3"
       data-name="未命名的渐变 3"
       cx="61.7"
       cy="18.6"
       fx="61.7"
       fy="18.6"
       r="68"
       gradientTransform="translate(-26.8 25.8) scale(.6 -.7)"
       gradientUnits="userSpaceOnUse"><stop
         offset="0"
         stop-color="#c64600"
         id="stop5" /><stop
         offset="1"
         stop-color="#a51d2d"
         id="stop6" /></radialGradient></defs><path
     class="st1"
     d="M47.5,64.1H13.8c-7.6,0-13.8-6.3-13.8-13.8V13.7C0,6.2,6.2,0,13.7,0h36.6c7.5,0,13.7,6.2,13.7,13.7v36.6c0,7.5-6.2,13.7-13.7,13.7h-2.9.1Z"
     id="path6"
     style="fill:#e4e4e4;fill-opacity:1" /><g
     id="g26"
     transform="matrix(1.13868,0,0,1.1362471,-4.4845447,-4.4309531)"><path
       style="fill:#63637c"
       d="M 17,18 49,45 39,55 24,56 13,49 7,36 12,24 Z"
       id="path1" /><circle
       r="20.5"
       style="opacity:0.2"
       cx="36.5"
       cy="28.5"
       id="circle1" /><circle
       r="20.5"
       style="fill:#345ed2"
       cx="36.5"
       cy="27.5"
       id="circle2" /><path
       style="opacity:0.2;fill:#ffffff"
       d="M 36.5,7 A 20.5,20.5 0 0 0 16,27.5 20.5,20.5 0 0 0 16.021484,28.085938 20.5,20.5 0 0 1 36.5,8 20.5,20.5 0 0 1 56.978516,27.914062 20.5,20.5 0 0 0 57,27.5 20.5,20.5 0 0 0 36.5,7 Z"
       id="path2" /></g></svg>
